X: 22783
T: Languor Of Love, The
R: reel
M: 4/4
K: Amajor
A3 G F3 f|e2 c2 d2 D2|c3 B A2 d2|c2 e2 d2 cz|A,2 AB c2 B2|A2 E2 F2 z2|e2 d2 c2 A2|df e2 E2 A2|
A3 G F3 f|e2 c2 d2 D2|c2 dB A2 d2|c2 e2 d2 cz|A,2 AB c2 B2|A2 E2 F2 z2|e2 d2 c2 A2|f2 e2 d2 c2|
A2 B2 c2 A2|B2 c2 d2 D2|a2 g2 f2 z2|f2 e2 d2 cz|A2 B2 c2 G2|A2 E2 F2 z2|e2 d2 c2 A2|fd e2 E2 A2|
a2 g2 f2 z2|e2 c2 d2 D2|a2 g2 f2 F2|e2 E2 A2 z2|a2 gf e2 G2|A2 E2 F4|c2 d2 c2 e2|f2 e2 d2 c2||

